dashboard/assets/pic-75-9cc68e54f44122dd.svg

<svg xmlns="http://www.w3.org/2000/svg" viewBox="0 0 22.01 28.04"><g data-name="图层 2"><path d="M13.75 6.36V2.89a1.49 1.49 0 000-.21 1.08 1.08 0 00.93-1.07v-.53A1.08 1.08 0 0013.58 0H8.42a1.07 1.07 0 00-1.07 1.08v.53a1.07 1.07 0 00.93 1.07.75.75 0 000 .21v3.47S0 25.77 0 26.58A1.46 1.46 0 001.47 28h19.07A1.46 1.46 0 0022 26.58c0-.81-8.25-20.22-8.25-20.22zm.32 19.8h-2.69v-1h1.67v-1.57h-1.67v-1h1.67v-1.3h-1.67v-1h1.67V19h-1.67v-1h1.67v-1.31h-1.67v-1h1.67v-1.3h-1.67v-1h1.67v-1.57h-1.67v-1h2.69z" fill="#375d81" data-name="Layer 1"/></g></svg>

<svg xmlns="http://www.w3.org/2000/svg" viewBox="0 0 22.01 28.04"><defs><style>.cls-1{fill:#375d81;}</style></defs><title>资源 9</title><g id="图层_2" data-name="图层 2"><g id="Layer_1" data-name="Layer 1"><path class="cls-1" d="M13.75,6.36V2.89a1.49,1.49,0,0,0,0-.21,1.08,1.08,0,0,0,.93-1.07V1.08A1.08,1.08,0,0,0,13.58,0H8.42A1.07,1.07,0,0,0,7.35,1.08v.53a1.07,1.07,0,0,0,.93,1.07.75.75,0,0,0,0,.21V6.36S0,25.77,0,26.58A1.46,1.46,0,0,0,1.47,28H20.54A1.46,1.46,0,0,0,22,26.58C22,25.77,13.75,6.36,13.75,6.36Zm.32,19.8H11.38v-1h1.67V23.59H11.38v-1h1.67V21.29H11.38v-1h1.67V19H11.38V18h1.67V16.69H11.38v-1h1.67V14.39H11.38v-1h1.67V11.82H11.38v-1h2.69Z"/></g></g></svg>
